X:268
T:no name
R:reel
Z:id:hn-reel-268
M:C|
K:G
G2DG BGBd|g2dg fdcA|BG~G2 FGAF|GBAG FDEF|
G2DG BGBd|g2dg fdcA|BG~G2 FGAg|1 fdcA GDEF:|2 fdcA G2Bd||
|:g2dg bgaf|g2dg fdcA|BG~G2 AGFD|1 FGAg fdef|
g2dg bgaf|g2dg fdcA|BG~G2 FGAg|fdcA G2Bd:|2 FGAg fdcA|
BG~G2 FGAf|g2eg fgag|bg~g2 agfg|fdcA GDEF||

